public/icons/static/rubyOnRails.svg

<svg width="130" height="79" viewBox="0 0 130 79" fill="none" xmlns="http://www.w3.org/2000/svg">
<path d="M4.06442 78.9103H49.0367C49.0367 78.9103 40.4407 39.9113 68.9042 24.1192C75.1093 21.1193 94.8629 9.91207 127.197 33.685C128.222 32.836 129.19 32.1568 129.19 32.1568C129.19 32.1568 99.5879 2.78018 66.6271 6.06311C50.0614 7.53477 29.6815 22.5344 17.7269 42.3452C5.77222 62.156 4.06442 78.9103 4.06442 78.9103ZM97.7662 9.23284L97.9939 5.44049C97.4816 5.15748 96.0584 4.47825 92.472 3.45941L92.2443 7.19516C94.1229 7.81779 95.9445 8.49701 97.7662 9.23284ZM92.3581 21.2325L92.1304 24.7985C94.009 24.8551 95.8876 25.0815 97.7662 25.4777L97.9939 21.9684C96.0584 21.5721 94.1798 21.3457 92.3581 21.2325V21.2325ZM71.2951 3.57261H71.8644L70.7259 0.119873C68.9611 0.119873 67.1395 0.233078 65.2609 0.459487L66.3425 3.79902C67.9934 3.62922 69.6443 3.57261 71.2951 3.57261ZM74.0276 24.4023L75.337 28.3078C76.9878 27.5154 78.6387 26.8362 80.2896 26.3267L79.0372 22.591C77.1017 23.157 75.4508 23.7796 74.0276 24.4023ZM48.1828 9.51585L45.6211 5.6103C44.1979 6.34613 42.7178 7.13856 41.1808 8.04419L43.7994 12.0064C45.2795 11.1007 46.7027 10.2517 48.1828 9.51585V9.51585ZM59.8528 34.9869L62.5853 39.0623C63.5531 37.6472 64.6916 36.3453 65.944 35.0435L63.3823 31.1945C62.073 32.3832 60.8775 33.685 59.8528 34.9869V34.9869ZM51.5984 53.2128L56.2095 56.8354C56.4372 54.6279 56.8357 52.4204 57.405 50.2129L53.3062 46.9866C52.5662 49.0809 52.0538 51.1751 51.5984 53.2128V53.2128ZM26.6644 26.3267L22.6226 22.8174C21.1425 24.2325 19.7193 25.6475 18.41 27.0626L22.7934 30.7983C23.9889 29.2701 25.2982 27.7418 26.6644 26.3267V26.3267ZM9.47248 51.628L2.92588 49.2507C1.84426 51.6846 0.648798 54.5147 0.0795288 56.0429L6.62613 58.4202C7.36618 56.4958 8.56164 53.7222 9.47248 51.628V51.628ZM50.7445 67.5898C50.8584 70.5897 51.143 73.0236 51.4276 74.7217L58.2589 77.1556C57.7465 74.9481 57.2342 72.4576 56.8926 69.7973L50.7445 67.5898V67.5898Z" fill="#CC0000"/>
</svg>

<svg xmlns="http://www.w3.org/2000/svg" fill="none" viewBox="0 0 130 79">
  <path fill="#C00" d="M4.0644 78.9103h44.9723s-8.596-38.999 19.8675-54.7911c6.2051-2.9999 25.9587-14.2071 58.2928 9.5658 1.025-.849 1.993-1.5282 1.993-1.5282S99.5879 2.7802 66.6271 6.0631C50.0614 7.5348 29.6815 22.5344 17.7269 42.3452 5.7722 62.156 4.0644 78.9103 4.0644 78.9103ZM97.7662 9.2328l.2277-3.7923c-.5123-.283-1.9355-.9623-5.5219-1.981l-.2277 3.7357c1.8786.6226 3.7002 1.3018 5.5219 2.0376Zm-5.4081 11.9997-.2277 3.566c1.8786.0566 3.7572.283 5.6358.6792l.2277-3.5093c-1.9355-.3963-3.8141-.6227-5.6358-.7359ZM71.2951 3.5726h.5693L70.7259.12c-1.7648 0-3.5864.1132-5.465.3396l1.0816 3.3395c1.6509-.1698 3.3018-.2264 4.9526-.2264Zm2.7325 20.8297 1.3094 3.9055c1.6508-.7924 3.3017-1.4716 4.9526-1.9811l-1.2524-3.7357c-1.9355.566-3.5864 1.1886-5.0096 1.8113ZM48.1828 9.5159l-2.5617-3.9056c-1.4232.7358-2.9033 1.5283-4.4403 2.4339l2.6186 3.9622c1.4801-.9057 2.9033-1.7547 4.3834-2.4905Zm11.67 25.471 2.7325 4.0754c.9678-1.4151 2.1063-2.717 3.3587-4.0188l-2.5617-3.849c-1.3093 1.1887-2.5048 2.4905-3.5295 3.7924Zm-8.2544 18.2259 4.6111 3.6226c.2277-2.2075.6262-4.415 1.1955-6.6225l-4.0988-3.2263c-.74 2.0943-1.2524 4.1885-1.7078 6.2262Zm-24.934-26.8861-4.0418-3.5093c-1.4801 1.4151-2.9033 2.8301-4.2126 4.2452l4.3834 3.7357c1.1955-1.5282 2.5048-3.0565 3.871-4.4716ZM9.4724 51.628 2.926 49.2507C1.8443 51.6846.6488 54.5147.0795 56.0429l6.5466 2.3773c.74-1.9244 1.9355-4.698 2.8464-6.7922Zm41.2721 15.9618c.1139 2.9999.3985 5.4338.6831 7.1319l6.8313 2.4339c-.5124-2.2075-1.0247-4.698-1.3663-7.3583l-6.1481-2.2075Z"/>
</svg>
